X:119
T:Hag at the Kiln (slide)
T:Dinny Delaney's  
B:CRE 2.088 (Chailleach sa TornÃÂÃÂÃÂÃÂ³ig)
F:file ID: cre.2/119hag_k
N:I don't like the sound of the C sharps in this version but 
I've left them in anyway. Feel free to play all C's as natural.
L:1/8
Q:200
M:12/8
R:jig
K:G
"D modal"
A2D DDD A2D EFG|A2D DDD G2A GED|
A2D DDD c2d e2d|d^cA AGE G2A GED:|
|:d2A AGE c3 AB^c|d2A AGE G2A GED|
d^cA AGE =c2d e2d|d^cA AGE G2A GED:|

%%%

